X: 18599
T: I Think It's Thursday
R: reel
M: 4/4
K: Aminor
|:GEED E2 DE|GAAG A2 BA|Geed e2 dB|GAAG A2 BA|
GEED E2 DE|GAAG A2 BA|Geed e2 dB|1 GAAG A2 BA:|2 GAAG A2 EG||
|:Aeed e2 dB|Aeed e2 de|g2 ed g2 ed|BedB AGEG|
Aeed e2 dB|Aeed e2 de|g2 ed g2 ed|1 BedB A3 G:|2 BedB A4||

